X:1
T: Tatero
O: Aragon
Z: Manuel Waldesco <mwal@wanadoo.es> scots-l 2002-1-6
L:1/8
M:6/8
K:Cmin
g2f|:ede fef|gfg a2g|fef agf|1g2e g2f:|2e3g2f|
|:ede fef|gfg a2g|fef agf|1g2e g2f:|2e3c2c|
|:cBB BAA|A2G2 GG |AAA BBB|1d2c2cc:|2c3c2c
|:cBB BAA|A2G2 GG|AAA BBB|1d2c2cc:|2c6
